!!!!SEGMENT: pl-kk--kk-i-69--001_anonim--protexisti-pro-festo-protexisti-me.krn
!!!cenid: 17xx:2282
!!!COM: Anonim
!!!COM-rismID: pe30004985
!!!CDT:
!!!CNT:
!!!OPR: Protexisti pro festo
!!!OTL: Protexisti me
!!!OMV: 001
!!!PDT:
!!!AGN: Sacred; Mass
!!!SMS-siglum: PL-Kk
!!!SMS-shelfmark: Kk.I.69
!!!SMS-shelfwork: 001-001 M
!!!SMS-variant:
!!!SMS-altvar:
!!!NIFC-rismSourceID: 1001154789
!!!NIFC-rismChildID: 1001154789
!!!NIFC-islandoraID: pl-kk:15747
!!!URL-pdf-islandora: https://repozytorium.nifc.pl/islandora/object/pl-kk%3A15747/datastream/PDF/view
!!!URL-scan: https://polish.musicsources.pl/pl/lokalizacje/galeria/rekopisy/7324/1 @EN{Scan on Polish Music Sources Website} @PL{Skany w portalu Dziedzictwo Muzyki Polskiej w otwartym dostępie}
!!!ONB-nifc: UWAGA: części Mszy: 1. Protexisti me, 2. Kyrie, 3. Et in terra, 4. Alleluia, 5. Patrem, 6. Posuisti Domine, 7. Sanctus, 8. Benedictus, 9. Agnus Dei, 10. Dona nobis, 11. Deo gratias
!!!AIN: 1 empty 2 tenor
!!!key:
**kern	**text	**kern	**text	**kern	**text
*part3	*part3	*part2	*part2	*part1	*part1
*staff3	*staff3	*staff2	*staff2	*staff1	*staff1
*Iempty	*	*Itenor	*	*Itenor	*
*I"Baſso	*	*I"Tenore Secundo	*	*I"Tenore Primo	*
*I'B	*	*I'T 2	*	*I'T 1	*
*clefF4	*	*clefC4	*	*clefC4	*
*k[]	*	*k[]	*	*k[]	*
*C:	*	*C:	*	*C:	*
*M2/2	*	*M2/2	*	*M2/2	*
*met(c|)	*	*met(c|)	*	*met(c|)	*
=1	=1	=1	=1	=1	=1
*	*	*2\right	*	*2\right	*
4C/	Pro-	2e\	Pro-	2g\	Pro-
4E/	.	.	.	.	.
4G/	.	2e\	-te-	2g\	-te-
4E/	-te-	.	.	.	.
=2	=2	=2	=2	=2	=2
4C/	-xis-	4e\	-xis-	4g\	-xis-
4D/	.	4f\	-ti	4a\	-ti
4E/	-ti-	4e\	.	4g\	.
4F/	-me	4d\	me	4f\	me
=3	=3	=3	=3	=3	=3
*2\right	*	*	*	*	*
2G\	De-	2c\	De-	2e\	De-
!	!	!	!	!LO:TX:a:t=d	!
2G\	-us	2G/	-us	2d\	-us
=4	=4	=4	=4	=4	=4
2r	.	2r	.	2r	.
4C/	a'	4e\	a'	4g\	a'
4E/	con-	4c\	con-	4e\	con-
=5	=5	=5	=5	=5	=5
2F\	-ven-	2c\	-ven-	2a\	-ven-
2E\	-tu	2c\	-tu	2g\	-tu
=6	=6	=6	=6	=6	=6
2G\	ma-	4d\	ma-	4f\	ma-
.	.	4c\	.	4e\	.
2G\	-li-	4B\	.	4d\	.
.	.	4c\	-li-	4e\	-li-
=7	=7	=7	=7	=7	=7
2.G\	-gna-	2.B\	-gna-	2.d\	-gna-
4G\	-ti-	4c\	-ti-	4e\	-ti-
!LO:LB:g=original	!	!LO:LB:g=original	!	!LO:LB:g=original	!
=8	=8	=8	=8	=8	=8
2G\	-um	2B\	-um	2d\	-um
2r	.	2r	.	2r	.
=9	=9	=9	=9	=9	=9
1G	al-	2B\	al-	2d\	al-
.	.	2c\	.	2e\	.
=10	=10	=10	=10	=10	=10
2B\	.	2d\	.	2f\	.
2c\	.	2c\	.	2e\	.
=11	=11	=11	=11	=11	=11
1F	.	4f\	.	4a\	.
.	.	4e\	.	4g\	.
.	.	4d\	.	4f\	.
.	.	4c\	.	4e\	.
=12	=12	=12	=12	=12	=12
4G\	-le-	2B\	.	2d\	.
4F\	.	.	.	.	.
4E\	.	2c\	-le-	2e\	-le-
4F\	.	.	.	.	.
=13	=13	=13	=13	=13	=13
1G	-lu-	2c\	-lu-	1d	-lu-
.	.	2B\	.	.	.
=14	=14	=14	=14	=14	=14
2C/	-ia	2G/	-ia	2e\	-ia
2C/	a'	2G/	a'	2e\	a'
=15	=15	=15	=15	=15	=15
2E\	mul-	2c\	mul-	2g\	mul-
2C/	.	2G/	.	2e\	.
!	!	!	!	!LO:LB:g=original	!
=16	=16	=16	=16	=16	=16
2G\	.	2d\	.	2f\	.
4B\	.	2B\	-ti-	2d\	-ti-
4G\	-ti-	.	.	.	.
!LO:LB:g=original	!	!LO:LB:g=original	!	!	!
=17	=17	=17	=17	=17	=17
2.E\	-tu-	2.c\	-tu-	2.e\	-tu-
4D\	-di-	4d\	-di-	4f\	-di-
=18	=18	=18	=18	=18	=18
2C/	-ne	2e\	-ne	2g\	-ne
4C/	o-	4e\	o-	4g\	o-
4c\	-pe-	4e\	-pe-	4g\	-pe-
=19	=19	=19	=19	=19	=19
1G	-ran-	4d\	-ran-	4f\	-ran-
.	.	4c\	.	4e\	.
.	.	4d\	.	4f\	.
.	.	4B\	.	4d\	.
=20	=20	=20	=20	=20	=20
4E\	.	4c\	.	4e\	.
4D\	.	4d\	.	4f\	.
4C\	.	4e\	.	4g\	.
4E\	.	4c\	.	4e\	.
=21	=21	=21	=21	=21	=21
2.G\	.	4d\	.	4f\	.
.	.	4c\	.	4e\	.
.	.	4d\	.	4f\	.
4G\	-ti-	4c\	-ti-	4e\	-ti-
=22	=22	=22	=22	=22	=22
2G\	-um	2B\	-um	2d\	-um
4C/	i-	2G/	i-	4e\	i-
4E/	.	.	.	4g\	.
!	!	!	!	!LO:LB:g=original	!
=23	=23	=23	=23	=23	=23
4F\	-ni-	2G/	-ni-	4a\	-ni-
4E\	.	.	.	4g\	.
4D\	-qui-	2G/	-qui-	4f\	-qui-
4C\	.	.	.	4e\	.
!LO:LB:g=original	!	!LO:LB:g=original	!	!	!
=24	=24	=24	=24	=24	=24
2G\	-ta-	2B\	-ta-	2d\	-ta-
2c\	.	2c\	.	2e\	.
=25	=25	=25	=25	=25	=25
1G	.	2c\	.	2e\	.
.	.	2B\	.	2d\	.
=26	=26	=26	=26	=26	=26
2C/	-tem	2c\	-tem	2e\	-tem
2G\	al-	2B\	al-	2d\	al-
=27	=27	=27	=27	=27	=27
2c\	-le-	2c\	-le-	2e\	-le-
2B\	-lu-	2d\	-lu-	2f\	-lu-
=28	=28	=28	=28	=28	=28
2c\	-ia	2e\	-ia	2g\	-ia
4G\	al-	4d\	al-	4f\	al-
4c\	.	4c\	.	4e\	.
=29	=29	=29	=29	=29	=29
1G	-le-	2d\	.	2f\	.
.	.	2c\	-le-	2e\	-le-
!	!	!	!	!LO:LB:g=original	!
=30	=30	=30	=30	=30	=30
1G	.	2B\	.	2d\	.
.	.	2c\	.	2e\	.
=31	=31	=31	=31	=31	=31
1G	-lu-	2c\	-lu-	1d	-lu-
.	.	2B\	.	.	.
=32	=32	=32	=32	=32	=32
1C	-ia	1G	-ia	1e	-ia
!LO:LB:g=original	!	!LO:LB:g=original	!	!LO:LB:g=original	!
==	==	==	==	==	==
*-	*-	*-	*-	*-	*-
!!!system-decoration: [(s1,s2,s3)]
!!!ENC: Marta Chmielewska
!!!END: 2021-08-06
!!!ENC: Anastazja Marusiak
!!!END: 2021-07-09
!!!YEC: Copyright 2022 Narodowy Instytut Fryderyka Chopina (https://polishscores.org)
!!!YEM: License CC-BY-4.0 (https://creativecommons.org/licenses/by/4.0)
